resources/haticons/SVG/border_outer.svg

<!-- Generated by IcoMoon.io -->
<svg version="1.1" xmlns="http://www.w3.org/2000/svg" width="24" height="24" viewBox="0 0 24 24">
<title>border_outer</title>
<path d="M9 11.016v1.969h-2.016v-1.969h2.016zM12.984 15v2.016h-1.969v-2.016h1.969zM18.984 18.984v-13.969h-13.969v13.969h13.969zM3 3h18v18h-18v-18zM17.016 11.016v1.969h-2.016v-1.969h2.016zM12.984 11.016v1.969h-1.969v-1.969h1.969zM12.984 6.984v2.016h-1.969v-2.016h1.969z"></path>
</svg>

<svg xmlns="http://www.w3.org/2000/svg" width="24" height="24"><path d="M9 11.016v1.969H6.984v-1.969H9zM12.984 15v2.016h-1.969V15h1.969zm6 3.984V5.015H5.015v13.969h13.969zM3 3h18v18H3V3zm14.016 8.016v1.969H15v-1.969h2.016zm-4.032 0v1.969h-1.969v-1.969h1.969zm0-4.032V9h-1.969V6.984h1.969z"/></svg>
